X: 19
T: 15th Scottish Division
R: waltz
M: 3/4
K: Dmajor
V:1
|:ag|"D"f2 fg/f/ "A7"ef/e/|"D"d2 A2 dc|"G"B2 g2 "D"fd|"A"e2 e2 fg|
V:2
|:fe|d2 d2 A2|FE F2 F2|GA Bc dF|AB cB AG|
V:1
"D"a2 d2 ef|"G"g2 B2 de|"D/A"f2 fg/f/ "A"ef/e/|"D"d2 d2:|
V:2
FE FA cd|BA GE FG|Ad A2 G2|F2 F2:|
V:1
|:cd|"A7"e2 A2 de|"D"f2 d2 fg|"D"a2 af "G"gf|"A"e2 e2 fg|
V:2
|:EF|GF G2 FG|AG F2 AG|FE FA Bd|AB cB AG|
V:1
"D"a2 d2 ef|"G"g2 B2 de|"D/A"f2 fg/f/"A7" ef/e/|"D"d2 d2:|
V:2
FE FA cd|BA GE FG|Ad A2 G2|F2 F2:|

